!!!!SEGMENT: pl-kk--kk-i-147_anonim--dignare-me-laudare-te.krn
!!!cenid: 17xx:2661
!!!COM: Anonim
!!!COM-rismID: pe30004985
!!!CDT:
!!!CNT:
!!!OTL: Dignare me laudare te
!!!PDT:
!!!AGN: Sacred
!!!YEC: Copyright 2022 Narodowy Instytut Fryderyka Chopina (https://polishscores.org)
!!!YEM: License CC-BY-4.0 (https://creativecommons.org/licenses/by/4.0)
!!!SMS-siglum: PL-Kk
!!!SMS-shelfmark: Kk.I.147
!!!SMS-variant:
!!!SMS-altvar:
!!!SMS-shelfwork: W
!!!NIFC-rismSourceID: 1001150555
!!!NIFC-rismChildID: 1001150555
!!!NIFC-islandoraID: pl-kk:3644
!!!URL-pdf-islandora: https://repozytorium.nifc.pl/islandora/object/pl-kk%3A3644/datastream/PDF/view
!!!URL-scan: https://polish.musicsources.pl/pl/lokalizacje/galeria/rekopisy/5774/1 @EN{Scan on Polish Music Sources Website} @PL{Skany w portalu Dziedzictwo Muzyki Polskiej w otwartym dostępie}
!!!IIIF:
!!!ONB-nifc:
!!!AIN: 1 alto 1 canto 1 tenor
!!!key:
**kern	**text	**kern	**text	**kern	**text
*part3	*part3	*part2	*part2	*part1	*part1
*staff3	*staff3	*staff2	*staff2	*staff1	*staff1
*I"Tenore.	*	*I"Alto.	*	*I"Canto.	*
*I'T	*	*I'A	*	*I'C	*
*Itenor	*	*Ialto	*	*Icanto	*
*ICvox	*	*ICvox	*	*ICvox	*
*clefC4	*	*clefC3	*	*clefC1	*
*k[]	*	*k[]	*	*k[]	*
*d:	*	*d:	*	*d:	*
*M2/2	*	*M2/2	*	*M2/2	*
*met(c|)	*	*met(c|)	*	*met(c|)	*
=1	=1	=1	=1	=1	=1
!LO:TX:a:t=2.	!	!	!	!	!
0r	.	1a	Di-	00r	.
=2	=2	=2	=2	=2	=2
*	*	*2\right	*	*	*
.	.	2a\	-gna-	.	.
.	.	2a\	-re	.	.
=3	=3	=3	=3	=3	=3
1d	Di-	2f\	me	.	.
.	.	(4d\	lau-	.	.
.	.	4e\)	.	.	.
=4	=4	=4	=4	=4	=4
*2\right	*	*	*	*	*
2d\	-gna-	(4f\	-da-	.	.
.	.	4e\)	.	.	.
2d\	-re	(4f\	-re	.	.
.	.	4d\)	.	.	.
=5	=5	=5	=5	=5	=5
2c\	me	2e,\	Te	00r	.
4A/	lau-	(4c/	Lau-	.	.
4B/	.	4d\)	.	.	.
=6	=6	=6	=6	=6	=6
(4c\	-da-	2.e\	-da-	.	.
4B\)	.	.	.	.	.
(4c\	-te	.	.	.	.
4A\)	.	4f\	.	.	.
=7	=7	=7	=7	=7	=7
2B\	Te	2g\	.	.	.
[2e\	La(u)-	2g#X\	-re	.	.
=8	=8	=8	=8	=8	=8
2e\]	.	2a\	Te	.	.
2d\	.	2f\	Vir-	.	.
!	!	!LO:LB:g=original	!	!	!
=9	=9	=9	=9	=9	=9
2c#X\	-da-	2e\	-go	0r	.
[2d\	.	2f\	Sa-	.	.
=10	=10	=10	=10	=10	=10
2d\]	.	1e	-cra-	.	.
2c#X\	-re	.	.	.	.
=11	=11	=11	=11	=11	=11
1d	Te	4d\	-ta	1dd	Di-
.	.	(4e\	.	.	.
.	.	4f\	.	.	.
.	.	4g\)	.	.	.
!LO:LB:g=original	!	!	!	!	!
=12	=12	=12	=12	=12	=12
*	*	*	*	*2\right	*
2r	.	1a	.	2dd\	-gna-
2f\	Lau-	.	.	2dd\	-re
=13	=13	=13	=13	=13	=13
2e\	-da-	2g\	Vir-	2cc\	me
2c\	-re	4f\	-go	(4a\	Lau-
.	.	4g\	Sa-	4b\)	.
=14	=14	=14	=14	=14	=14
1A	Te	4a\	-cra-	(4cc\	-da-
.	.	(8g\L	.	4b\)	.
.	.	8f\J)	.	.	.
.	.	4e\	.	(4cc\	-re
.	.	4f\	.	4a\)	.
=15	=15	=15	=15	=15	=15
1r	.	2d\	.	2b\	Te
.	.	2e\	.	2b\	Vir-
=16	=16	=16	=16	=16	=16
4r	.	2c/	-ta	2ee\	-go
4A/	Vir-	.	.	.	.
4d\	-go	2r	.	2a\	sa-
4c\	Sa-	.	.	.	.
!	!	!LO:LB:g=original	!	!	!
=17	=17	=17	=17	=17	=17
4B-X\	-cra-	2r	.	2dd\	-cra-
4G/	.	.	.	.	.
4c\	.	4r	.	2g/	.
4B-X\	.	4e\	Vir-	.	.
!	!	!	!	!LO:LB:g=original	!
=18	=18	=18	=18	=18	=18
4A/	.	4a\	-go	2.cc\	.
4F/	.	4g\	Sa-	.	.
[2B-X\	.	4f\	-cra-	.	.
.	.	4d\	.	4dd\	.
=19	=19	=19	=19	=19	=19
2B-\]	.	4g\	.	2ee\	-ta
.	.	4f\	.	.	.
[2A/	.	[2e\	.	2ee\	Sa-
=20	=20	=20	=20	=20	=20
!LO:N:xstem:cue	!	!	!	!	!
4A/]	.	2e\]	.	2a\	-cra-
4G/	.	.	.	.	.
4F/	.	2d\	-ta	[2dd\	.
4E/	.	.	.	.	.
=21	=21	=21	=21	=21	=21
!	!	!	!	!LO:N:xstem:cue	!
2D/	-ta	1g	Sa-	4dd\]	.
.	.	.	.	4cc\	.
[2d\	Sa-	.	.	2b-X\	.
!LO:LB:g=original	!	!	!	!	!
=22	=22	=22	=22	=22	=22
2d\]	.	2e\	-cra-	1a	-ta
2c#X\	.	[2a\	.	.	.
=23	=23	=23	=23	=23	=23
1d	-cra-	2a\]	.	1r	.
.	.	2g\	.	.	.
=24	=24	=24	=24	=24	=24
2c#X,\	-ta	1a	-ta	2a\	Vir-
2A/	Di-	.	.	4a\	-go
.	.	.	.	4b\	Sa-
=25	=25	=25	=25	=25	=25
!	!	!LO:TX:a:t=1.	!	!	!
2A/	-gna-	1r	.	4cc#X\	-cra-
.	.	.	.	4b\	.
2A/	-re	.	.	4cc#X\	.
.	.	.	.	4a\	.
!	!	!LO:LB:g=original	!	!	!
=26	=26	=26	=26	=26	=26
2F/	me	1d	Di-	2dd\	.
(4D/	lau-	.	.	2a\	.
4E/)	.	.	.	.	.
=27	=27	=27	=27	=27	=27
(4F/	-da-	2d\	-gna-	1a	-ta
4E/)	.	.	.	.	.
(4F/	-re	2d\	-re	.	.
4D/)	.	.	.	.	.
!	!	!	!	!LO:LB:g=original	!
=28	=28	=28	=28	=28	=28
2E/	Te	2c/	me	2r	.
[2F/	lau-	(4A/	Lau-	2a\	Di-
.	.	4B/)	.	.	.
=29	=29	=29	=29	=29	=29
!LO:N:xstem:cue	!	!	!	!	!
4F/]	.	(4c/	-da-	2a\	-gna-
4G/	.	4B/)	.	.	.
[2A/	.	(4c/	-re	2a\	-re
.	.	4A/)	.	.	.
=30	=30	=30	=30	=30	=30
!LO:N:xstem:cue	!	!	!	!	!
4A/]	.	4d\	Te	2fn/	me
4G/	.	(4e\	.	.	.
4F/	.	4f\)	.	4d/	Lau-
4E/	.	4g\	.	4e/	.
=31	=31	=31	=31	=31	=31
4D/	-da-	2a,\	.	4f/	-da-
4E/	.	.	.	4g/	.
4F/	.	(4A/	lau-	[2a\	.
4G/	.	4B/)	.	.	.
!LO:LB:g=original	!	!	!	!	!
=32	=32	=32	=32	=32	=32
!	!	!	!	!LO:N:xstem:cue	!
[1A	.	4c\	-da-	4a\]	.
.	.	4d\	.	4b\	.
.	.	[2e\	.	4cc\	.
.	.	.	.	4dd\	.
=33	=33	=33	=33	=33	=33
2A/]	.	4e\]	.	2ee,\	-re
.	.	4f\	.	.	.
2G/	-re	[2g\	.	[2ee\	Te
!	!	!LO:LB:g=original	!	!	!
=34	=34	=34	=34	=34	=34
1G	Te	4g\]	.	2ee\]	.
.	.	4d\	.	.	.
.	.	[2g\	.	(4dd\	Vir-
.	.	.	.	4cc\)	.
=35	=35	=35	=35	=35	=35
1r	.	2g\]	.	2b\	-go
.	.	[2f\	.	[2a\	sa-
=36	=36	=36	=36	=36	=36
2r	.	2f\]	.	2a\]	.
2Bn\	Te	[2e\	.	2g#X/	.
!	!	!	!	!LO:LB:g=original	!
=37	=37	=37	=37	=37	=37
2c\	Vir-	2e\]	.	1a	-cra-
4B\	-go	2d\	-re	.	.
4A\	Sa-	.	.	.	.
=38	=38	=38	=38	=38	=38
2B\	-cra-	1e	Te	2g#X,/	-ta
2G#X/	.	.	.	2ee\	Te
=39	=39	=39	=39	=39	=39
2A/	.	1r	.	2ff\	Vir-
2B\	.	.	.	4ee\	-go
.	.	.	.	4dd\	Sa-
=40	=40	=40	=40	=40	=40
2c\	-ta	2r	.	2ee\	-cra-
2r	.	2a\	Te	2cc\	.
=41	=41	=41	=41	=41	=41
1r	.	2b-X\	Vir-	2dd\	.
.	.	4a\	-go	2ee\	.
.	.	4g\	Sa-	.	.
=42	=42	=42	=42	=42	=42
1d	Di-	2a\	-cra-	2a\	-ta
.	.	2f\	.	2a\	Te
!LO:LB:g=original	!	!LO:LB:g=original	!	!	!
=43	=43	=43	=43	=43	=43
2d\	-gna-	2g\	.	2b-X\	Vir-
2d\	-re	2a\	.	4a\	-go
.	.	.	.	4g\	sa-
=44	=44	=44	=44	=44	=44
2c\	me	2e\	-ta	1a	-cra-
4A\	lau-	4c/	Lau-	.	.
4B\	.	4d\	.	.	.
=45	=45	=45	=45	=45	=45
4c\	-da-	2.e\	-da-	1a	-ta
4B\	.	.	.	.	.
4c\	.	.	.	.	.
4A\	.	4f\	.	.	.
=46	=46	=46	=46	=46	=46
2d\	.	2.g\	.	1r	.
2d\	-re	.	.	.	.
.	.	4f\	.	.	.
=47	=47	=47	=47	=47	=47
2c#X\	Te	2e\	.	2r	.
2r	.	[2d\	.	2a\	Te
!	!	!	!	!LO:LB:g=original	!
=48	=48	=48	=48	=48	=48
2r	.	2d\]	.	2b-X\	Vir-
2e\	Te	2c#X/	-re	4a\	-go
.	.	.	.	4g\	Sa-
=49	=49	=49	=49	=49	=49
2f\	Vir-	1d	Te	2a\	-cra-
4e\	-go	.	.	2f/	.
4d\	Sa-	.	.	.	.
=50	=50	=50	=50	=50	=50
2e\	-cra-	2r	.	2g/	.
2c\	.	2a\	di-	2a\	.
=51	=51	=51	=51	=51	=51
2d\	.	2a\	-gna-	2d/	-ta
2e\	.	2a\	-re	2r	.
!	!	!LO:LB:g=original	!	!	!
=52	=52	=52	=52	=52	=52
2A/	-ta	2f\	me	2r	.
!LO:LB:g=original	!	!	!	!	!
2F/	Lau-	(4d\	Lau-	2dd\	Di-
.	.	4e\)	.	.	.
=53	=53	=53	=53	=53	=53
1B-X	-da-	4f\	-da-	2dd\	-gna-
.	.	(4e\	.	.	.
.	.	4f\)	-re	2dd\	-re
.	.	4d\	.	.	.
=54	=54	=54	=54	=54	=54
4A\	.	2e,\	Te	2cc\	me
8B-X\L	.	.	.	.	.
8c\J	.	.	.	.	.
2d\	.	(4f\	Lau-	(4a\	lau-
.	.	4g\)	.	4b\)	.
=55	=55	=55	=55	=55	=55
4e\	.	1a	-da-	4cc\	-da-
4d\	.	.	.	4b\	.
(4e\	-re	.	.	4cc\	.
4c\)	.	.	.	4a\	.
=56	=56	=56	=56	=56	=56
2f,\	Te	1a	-re	4dd\	.
.	.	.	.	4ee\	.
(4F/	Lau-	.	.	4ff\	.
4G/)	.	.	.	4ee\	.
!	!	!	!	!LO:LB:g=original	!
=57	=57	=57	=57	=57	=57
2A/	-da-	1a	Te	2.dd\	.
[2d\	.	.	.	.	.
.	.	.	.	4cc\	-re
=58	=58	=58	=58	=58	=58
!LO:N:xstem:cue	!	!	!	!	!
4d\]	.	1g	Vir-	2b-X\	Te
4c\	.	.	.	.	.
4B-X\	.	.	.	(4g/	Lau-
4c\	.	.	.	4a\)	.
=59	=59	=59	=59	=59	=59
4d\	.	[1g	-go	4b-X\	-da-
4c\	.	.	.	4a\	.
(4d\	-re	.	.	4b-X\	.
4B-X\)	.	.	.	4g/	.
=60	=60	=60	=60	=60	=60
2c\	Te	1g]	.	4cc\	.
.	.	.	.	4dd\	.
!LO:LB:g=original	!	!	!	!	!
(4E/	Lau-	.	.	4een\	.
4F/)	.	.	.	4dd\	.
=61	=61	=61	=61	=61	=61
2G/	-da-	[1f	Sa-	2.cc\	.
[2c\	.	.	.	.	.
.	.	.	.	4b-X\	-re
=62	=62	=62	=62	=62	=62
!LO:N:xstem:cue	!	!	!	!	!
4c\]	.	1f_	.	2a,\	Te
4B-X\	.	.	.	.	.
4A\	.	.	.	(4f/	Lau-
4B-X\	.	.	.	4g/)	.
!	!	!LO:LB:g=original	!	!	!
=63	=63	=63	=63	=63	=63
4c\	.	1f_	.	4a\	-da-
4B-X\	.	.	.	4g\	.
(4c\	-re	.	.	4a\	.
4A/)	.	.	.	4f/	.
=64	=64	=64	=64	=64	=64
2d\	Te	1f]	.	4b-X\	.
.	.	.	.	4cc\	.
(4D/	Lau-	.	.	4dd\	.
4E/)	.	.	.	4cc\	.
!	!	!	!	!LO:LB:g=original	!
=65	=65	=65	=65	=65	=65
2F/	-da-	1ryy	.	4b-X,\	-re
.	.	.	.	4f/	Te
2F/	-re	.	.	[2b-X\	Vir-
=66	=66	=66	=66	=66	=66
2c\	Te	2e\	-cra-	2b-\]	.
2c\	Lau-	[2e\	.	4a\	-go
.	.	.	.	4a\	sa-
=67	=67	=67	=67	=67	=67
2c\	-da-	2e\]	.	1g	-cra-
2c\	-re	2e\	.	.	.
=68	=68	=68	=68	=68	=68
2c,\	Te	2f,\	-ta	1f	-ta
2c\	Te	2a\	Te	.	.
!LO:LB:g=original	!	!	!	!	!
=69	=69	=69	=69	=69	=69
2d\	Vir-	2b-X\	Vir-	1r	.
4c\	-go	4a\	-go	.	.
4B-X\	Sa-	4g\	Sa-	.	.
=70	=70	=70	=70	=70	=70
2c\	-cra-	2a\	-cra-	2r	.
2c\	-ta	2f\	.	2a\	Te
=71	=71	=71	=71	=71	=71
2r	.	2g\	.	2b-X\	Vir-
2d\	di-	(4f\	.	4a\	-go
.	.	4e\)	.	4g\	Sa-
=72	=72	=72	=72	=72	=72
2d\	-gna-	1f	-ta	2a\	-cra-
2d\	-re	.	.	4f/	.
.	.	.	.	4g/	.
!	!	!LO:LB:g=original	!	!	!
=73	=73	=73	=73	=73	=73
2c\	me	1a	di-	4a\	.
.	.	.	.	4bn\	.
4A/	lau-	.	.	4cc\	.
4Bn\	.	.	.	4dd\	.
!	!	!	!	!LO:LB:g=original	!
=74	=74	=74	=74	=74	=74
(4c\	-da-	2a\	-gna-	[1ee	.
4B\)	.	.	.	.	.
(4c\	-re	2a\	-re	.	.
4A\)	.	.	.	.	.
=75	=75	=75	=75	=75	=75
4D/	Te	2f\	me	2ee\]	.
4E/	.	.	.	.	.
4F/	.	(4d\	lau-	[2dd\	.
4G/	.	4e\)	.	.	.
=76	=76	=76	=76	=76	=76
[1A	.	4f\	-da-	2dd\]	.
.	.	(4e\	.	.	.
.	.	4f\)	-re	2a\	-ta
.	.	4d\	.	.	.
=77	=77	=77	=77	=77	=77
4A/]	.	1a	Te	2r	.
4B\	.	.	.	.	.
4c#X\	.	.	.	2a\	Di-
4d\	.	.	.	.	.
=78	=78	=78	=78	=78	=78
[1e	.	1a	Vir-	2a\	-gna-
.	.	.	.	2a\	-re
!LO:LB:g=original	!	!	!	!	!
=79	=79	=79	=79	=79	=79
2e\]	.	1a	-go	(4f/	me
.	.	.	.	4e/)	.
4d\	.	.	.	(4f/	Lau-
4c#X\	.	.	.	4g/)	.
=80	=80	=80	=80	=80	=80
1d	Lau-	[1a	Sa-	4a\	-da-
.	.	.	.	4a\	-re
.	.	.	.	[2dd\	Te
=81	=81	=81	=81	=81	=81
1e	-da-	1a_	.	2dd\]	.
.	.	.	.	2cc#X\	Vir-
=82	=82	=82	=82	=82	=82
2f\	-re	1a_	.	2dd\	-go
(4F/	Lau-	.	.	[2a\	Sa-
4G/)	.	.	.	.	.
!	!	!	!	!LO:LB:g=original	!
=83	=83	=83	=83	=83	=83
2A/	-da-	1a_	.	4a\]	.
.	.	.	.	4g/	.
[2d\	.	.	.	4f/	.
.	.	.	.	4e/	.
=84	=84	=84	=84	=84	=84
!LO:N:xstem:cue	!	!	!	!	!
4d\]	.	1a]	.	2f/	.
4e\	.	.	.	.	.
2f\	.	.	.	[2dd\	.
=85	=85	=85	=85	=85	=85
[1e	.	0a	-cra-	2dd\]	.
.	.	.	.	4cc#X\	.
.	.	.	.	4b\	.
=86	=86	=86	=86	=86	=86
!LO:N:xstem:cue	!	!	!	!	!
2e\]	.	.	.	1cc#X	-cra-
2e\	-re	.	.	.	.
=87	=87	=87	=87	=87	=87
0d	Te	0a;	-ta	0dd	-ta.
!	!	!	!	!LO:TX:a:t=Vertatur	!
!LO:PB:g=original	!	!LO:TX:a:t=Vertatur	!	!LO:PB:g=original	!
=89||	=89||	=89||	=89||	=89||	=89||
!LO:TX:a:t=3	!	!	!	!	!
0r	.	2r	.	00r	.
.	.	2a\	Da	.	.
=90	=90	=90	=90	=90	=90
.	.	2g\	mi-	.	.
.	.	4e\	-hi	.	.
.	.	4e\	Vir-	.	.
=91	=91	=91	=91	=91	=91
1r	.	1f	-tu-	.	.
=92	=92	=92	=92	=92	=92
2A/	con-	2e\	-tem	.	.
2A/	-tra	[2a\	da	.	.
=93	=93	=93	=93	=93	=93
2B-X\	hoſ-	2a\]	.	00r	.
2B-\	-tes	[2g\	mi-	.	.
=94	=94	=94	=94	=94	=94
*	*ij	*	*	*	*
2Bn\	con-	2g\]	.	.	.
2B\	-tra	[2f\	-hi	.	.
=95	=95	=95	=95	=95	=95
2c\	hos-	2f\]	.	.	.
2c\	-tes	(4e\	vir-	.	.
.	.	4d\)	.	.	.
=96	=96	=96	=96	=96	=96
2c#X\	con-	2e\	-tu-	.	.
2c#\	-tra	2e\	-tem	.	.
=97	=97	=97	=97	=97	=97
!	!	!LO:TX:a:t=1.	!	!	!
2d\	hos-	1r	.	1r	.
2d\	-tes	.	.	.	.
*	*Xij	*	*	*	*
!	!	!LO:LB:g=original	!	!	!
=98	=98	=98	=98	=98	=98
(2d\	tu-	2e\	con-	2r	.
2c#X\)	.	2e\	-tra	2ee\	Da
=99	=99	=99	=99	=99	=99
1d	-os	2fn\	hos-	2dd\	mi-
.	.	2f\	-tes	4b\	-hi
.	.	.	.	4b\	Vir-
=100	=100	=100	=100	=100	=100
!LO:TX:a:t=6.	!	!	!	!	!
*	*	*	*ij	*	*
00r	.	2f#X\	con-	1cc	-tu-
.	.	2f#\	-tra	.	.
=101	=101	=101	=101	=101	=101
.	.	2gn\	hos-	2b,\	-tem
.	.	2g\	-tes	[2ee\	con-
*	*	*	*Xij	*	*
=102	=102	=102	=102	=102	=102
.	.	2g#X\	con-	2ee\]	.
.	.	2g#\	-tra	[2dd\	-tra
=103	=103	=103	=103	=103	=103
.	.	2a\	hoſ-	2dd\]	.
.	.	[2a\	-tes	4cc\	hos-
.	.	.	.	4cc\	-tes
=104	=104	=104	=104	=104	=104
0r	.	2a\]	.	1b	tu-
.	.	2g#X\	tu-	.	.
=105	=105	=105	=105	=105	=105
.	.	1a	-os	2a\	-os
.	.	.	.	2r	.
!LO:LB:g=original	!	!	!	!LO:LB:g=original	!
=106	=106	=106	=106	=106	=106
!	!	!LO:TX:a:t=1.	!	!	!
4d\	da	1r	.	2a\	con-
4A/	mi-	.	.	.	.
4d\	-hi	.	.	2a\	-tra
4c\	Vir-	.	.	.	.
=107	=107	=107	=107	=107	=107
2B-X\	-tu-	4gn\	da	2b-X\	hos-
.	.	4d\	mi-	.	.
2B-\	-tem	4g\	-hi	2b-\	-tes
.	.	4f\	vir-	.	.
!	!	!LO:LB:g=original	!	!	!
=108	=108	=108	=108	=108	=108
*	*ij	*	*	*	*ij
4en\	da	1e	-tu-	2bn\	con-
4Bn\	mi-	.	.	.	.
4e\	-hi	.	.	2b\	-tra
4d\	vir-	.	.	.	.
=109	=109	=109	=109	=109	=109
2c\	-tu-	2e\	-tem	2cc\	hos-
2c\	-tem	[2a\	Con-	2cc\	-tes
*	*Xij	*	*	*	*
=110	=110	=110	=110	=110	=110
0r	.	2a\]	.	2cc#X\	con-
.	.	[2g\	-(t)ra	2cc#\	-tra
=111	=111	=111	=111	=111	=111
.	.	2g\]	.	2dd\	hos-
.	.	4f\	ho-	[2dd\	-tes
*	*	*	*	*	*Xij
.	.	4f\	-ſtes	.	.
=112	=112	=112	=112	=112	=112
1e	da	1e	tu-	2dd\]	.
.	.	.	.	2cc#X\	tu-
=113	=113	=113	=113	=113	=113
2d\	mi-	1f	-os	2dd\	-os
4B\	-hi	.	.	2r	.
4B\	vir-	.	.	.	.
!	!	!	!	!LO:LB:g=original	!
=114	=114	=114	=114	=114	=114
1c	-tu-	0r	.	1a	da
=115	=115	=115	=115	=115	=115
2B\	-tem	.	.	2g/	mi-
2c#X\	vir-	.	.	4e/	-hi
.	.	.	.	4e/	Vir-
=116	=116	=116	=116	=116	=116
1d	-tu-	1r	.	1f	-tu-
!LO:LB:g=original	!	!	!	!	!
=117	=117	=117	=117	=117	=117
1e	.	1a	da	2e/	-tem
.	.	.	.	4e/	con-
.	.	.	.	4f/	-tra
=118	=118	=118	=118	=118	=118
2d\	-tem	2g\	mi-	2g/	ho-
2G/	vir-	4e\	-hi	2g/	-stes
.	.	4e\	vir-	.	.
!	!	!LO:LB:g=original	!	!	!
=119	=119	=119	=119	=119	=119
2c\	-tu-	1f	-tu-	1a	tu-
[2c\	.	.	.	.	.
=120	=120	=120	=120	=120	=120
2c\]	.	2e,\	-tem	2a\	-os
2c#X\	.	[2a\	con-	2r	.
=121	=121	=121	=121	=121	=121
1d	-tem	2a\]	.	1r	.
.	.	[2g\	-tra	.	.
=122	=122	=122	=122	=122	=122
2G/	con-	2g\]	.	2dd\	con-
2G/	-tra	[2f\	ho-	2dd\	-tra
=123	=123	=123	=123	=123	=123
2c\	hoſ-	2f\]	.	2g/	hos-
2c\	-tes	4e\	.	2g/	-tes
.	.	4d\	.	.	.
!	!	!	!	!LO:LB:g=original	!
=124	=124	=124	=124	=124	=124
1A	tu-	2e\	.	2a\	con-
.	.	2e\	-stes	2a\	-tra
=125	=125	=125	=125	=125	=125
1A	-os	(4f\	hoſ-	2dd\	hos-
.	.	4g\)	.	.	.
.	.	[2a\	-tes	2cc\	-tes
=126	=126	=126	=126	=126	=126
1r	.	2a\]	.	1b	tu-
.	.	2g#X\	Tu-	.	.
!LO:LB:g=original	!	!	!	!	!
=127	=127	=127	=127	=127	=127
1A	da	2a\	-os	2a\	-os
.	.	2r	.	2r	.
!	!	!LO:LB:g=original	!	!	!
=128	=128	=128	=128	=128	=128
2G/	mi-	1e	da	0r	.
4E/	-hi	.	.	.	.
4E/	Vir-	.	.	.	.
=129	=129	=129	=129	=129	=129
1F	-tu-	2d\	mi-	.	.
.	.	4B/	-hi	.	.
.	.	4B/	Vir-	.	.
=130	=130	=130	=130	=130	=130
2E/	-tem	2c/	-tu-	1ee	Da
2G/	Vir-	2c/	-tem	.	.
=131	=131	=131	=131	=131	=131
2A/	-tu-	2f\	con-	2dd\	mi-
2G/	.	2d\	-tra	4b\	-hi
.	.	.	.	4b\	vir-
=132	=132	=132	=132	=132	=132
1A	.	2e\	ho-	4cc#X\	-tu-
.	.	.	.	4cc#\	-tem
.	.	2f\	.	[2dd\	con-
=133	=133	=133	=133	=133	=133
2G/	-tem	1g	.	2dd\]	.
2c\	con-	.	.	2ccn\	-trea
=134	=134	=134	=134	=134	=134
2d\	-tra	2f\	.	4b-X\	hoſ-
.	.	.	.	4b-\	-tes
2e\	ho-	4e\	.	2b-X\	tu-
.	.	4d\	.	.	.
!	!	!	!	!LO:LB:g=original	!
=135	=135	=135	=135	=135	=135
2c#X\	-stes	2e\	.	2a\	-os
[2d\	tu-	2f\	-stes	2r	.
=136	=136	=136	=136	=136	=136
2d\]	.	1g	tu-	2e/	con-
2c#X\	.	.	.	2e/	-tra
!LO:LB:g=original	!	!	!	!	!
=137	=137	=137	=137	=137	=137
1d	-os	2a\	-os	2fn/	hos-
.	.	2r	.	2f/	-tes
!	!	!LO:LB:g=original	!	!	!
=138	=138	=138	=138	=138	=138
00r	.	2A/	con-	2f#X/	con-
.	.	2A/	-tra	2f#/	-tra
=139	=139	=139	=139	=139	=139
.	.	2B-X/	hoſ-	2gn/	hos-
.	.	2B-/	-tes	2g/	-tes
=140	=140	=140	=140	=140	=140
*	*	*	*ij	*	*
.	.	2Bn/	con-	2g#X/	con-
.	.	2B/	-tra	2g#/	-tra
=141	=141	=141	=141	=141	=141
.	.	2c/	hos-	2a\	hos-
.	.	2c/	-tes	2a\	-tes
=142	=142	=142	=142	=142	=142
2E/	con-	2c#X/	con-	2gn/	tu-
2E/	-tra	2c#/	-tra	2g/	-os
!	!	!	!	!LO:LB:g=original	!
=143	=143	=143	=143	=143	=143
2Fn/	hoſ-	2d\	hos-	2r	.
2F/	-tes	2d\	-tes	[2dd\	con-
*	*	*	*Xij	*	*
=144	=144	=144	=144	=144	=144
*	*ij	*	*	*	*
2F#X/	con-	2r	.	2dd\]	.
2F#/	-tra	[2a\	con-	2ccn\	-tra
=145	=145	=145	=145	=145	=145
2G/	hos-	2a\]	.	[1dd	ho-
2G/	-tes	2g\	-tra	.	.
=146	=146	=146	=146	=146	=146
2G#X/	con-	1r	.	1dd_	.
2G#/	-tra	.	.	.	.
=147	=147	=147	=147	=147	=147
2A/	hos-	4e\	da	2dd\]	.
.	.	4e\	mi-	.	.
2A/	-tes	4e\	-hi	4cc\	.
*	*Xij	*	*	*	*
.	.	4e\	vir-	4b-X\	.
!	!	!LO:LB:g=original	!	!	!
=148	=148	=148	=148	=148	=148
1A	hoſ-	2e\	-tu-	[1a	.
.	.	2e\	-tem	.	.
=149	=149	=149	=149	=149	=149
1A	-tes	4f\	con-	4a\]	.
.	.	4f\	-tra	4a\	-stes
.	.	4g\	hoſ-	[2dd\	tu-
.	.	4g\	-tes	.	.
=150	=150	=150	=150	=150	=150
1A	tu-	1e	tu-	2dd\]	.
.	.	.	.	2cc#X\	.
=151	=151	=151	=151	=151	=151
2A/	-os	2d\	-os	2dd,\	-os
2r	.	2d\	vir-	[2b-X\	con-
!LO:LB:g=original	!	!	!	!LO:LB:g=original	!
=152	=152	=152	=152	=152	=152
!LO:TX:a:t=1.	!	!	!	!	!
1r	.	2e-X\	-tu-	2b-X\]	.
.	.	2e-\	-tem	2b-\	-tra
=153	=153	=153	=153	=153	=153
4en\	con-	4en\	con-	2bn\	hos-
4e\	-tra	4e\	-tra	.	.
4d\	hoſ-	4f\	hoſ-	2b\	-tes
4d\	-tes	4f\	-tes	.	.
=154	=154	=154	=154	=154	=154
2d\	tu-	1e	tu-	1a	tu-
2c#X\	.	.	.	.	.
=155	=155	=155	=155	=155	=155
0d;	-os	0e;	-os	0a	-os.
!	!	!	!	!LO:TX:b:t=O. ad M. D. G.	!
==	==	==	==	==	==
*-	*-	*-	*-	*-	*-
!!!system-decoration: [(s1,s2,s3)]
!!!ENC: Andrzej Gręziak
!!!END: 2024-06-07
!!!ENC: Leszek Kubiak
!!!END: 2024-06-23
